X: 43250
T: Wolfshead, The
R: jig
M: 6/8
K: Eminor
|:E2B ~B3|cBA BAG|E2B ~B3|cBA B3|
E2B ~B3|cBA BAG|AGF GFE|FED E3:|
|:e2e ABd|e2e ABd|~e3 FEF|GFG BAB|
e2e ABd|e2e ABd|~e3 FEF|BAG E3:|

